X: 4230
T: Bluemont, The
R: waltz
M: 3/4
K: Gmajor
D G A|:B2 BA B/A/G|A2 AB BA|G2 E2 E2|E4 (F/E/D)|
C3 D C2|D2 G2 B2|A6-|A3 D GA|
B2 BA B/A/G|A2 AB BA|G2 E2 E2|E4 F/E/D|
C3 D C2|{D}C B3 A2|G6|1 G4 D/G/A:|2 B2 c2 d2||
|:e4 e2|d4 c2|c2 B4-|B4 B/c/A|
G4 G2|A2 G2 A2|B6-|B2 Bd BG|
A4 AB|A2 G2 E2|D G3 D2|E4 D2|
C3 D C2|D B3 A2|G6|1 B2 c2 d2:|2 G6||

